img/copy.svg

<svg width="40" height="40" viewBox="0 0 40 40" fill="none" xmlns="http://www.w3.org/2000/svg">
    <path d="M8.33398 24.9999H6.66732C5.78326 24.9999 4.93542 24.6487 4.31029 24.0236C3.68517 23.3985 3.33398 22.5506 3.33398 21.6666V6.66659C3.33398 5.78253 3.68517 4.93468 4.31029 4.30956C4.93542 3.68444 5.78326 3.33325 6.66732 3.33325H21.6673C22.5514 3.33325 23.3992 3.68444 24.0243 4.30956C24.6495 4.93468 25.0007 5.78253 25.0007 6.66659V8.33325M18.334 14.9999H33.334C35.1749 14.9999 36.6673 16.4923 36.6673 18.3333V33.3333C36.6673 35.1742 35.1749 36.6666 33.334 36.6666H18.334C16.493 36.6666 15.0007 35.1742 15.0007 33.3333V18.3333C15.0007 16.4923 16.493 14.9999 18.334 14.9999Z" stroke="#2563EB" stroke-width="2" stroke-linecap="round" stroke-linejoin="round"/>
</svg>

<svg width="40" height="40" fill="none" xmlns="http://www.w3.org/2000/svg"><path d="M8.334 25H6.667a3.333 3.333 0 01-3.333-3.333v-15a3.333 3.333 0 013.333-3.334h15a3.333 3.333 0 013.334 3.334v1.666M18.334 15h15a3.333 3.333 0 013.333 3.333v15a3.333 3.333 0 01-3.333 3.334h-15a3.333 3.333 0 01-3.333-3.334v-15A3.333 3.333 0 0118.334 15z" stroke="#2563EB" stroke-width="2" stroke-linecap="round" stroke-linejoin="round"/></svg>
